X:54
T:Mother Goose. RH.054
R:Jig
S:Rev.R.Harrison’s MS,c1815,Cumbria
O:England
A:Temple Sowerby,Cumbria
Z:vmp.Simon Wilson. Review PJH, 2008.
M:6/8
L:1/8
Q:3/8=120
K:D
A|dcB A>FD|D>FD E2A|(dc).d fed|ecA A2B|!
(dfa) (dgb)|(af).d (ec).A|(Bc).d (ed).c|dAF D2:|!
|:f/g/|(af).d (bg).e|(af).d ecA|(Bc).d AGF|BGE E2f/g/|!
(af).d (bg).e|(af).d (ec).A|(Bc).d (ed).c|dAF D2:|

